assets/logos/google-plus.svg

<svg width="80" height="80" viewBox="0 0 80 80" fill="none" xmlns="http://www.w3.org/2000/svg">
<path d="M72 40C72 57.6731 57.6731 72 40 72C22.3269 72 8 57.6731 8 40C8 22.3269 22.3269 8 40 8C57.6731 8 72 22.3269 72 40Z" fill="#E4363A"/>
<path d="M52.8431 34.5429C52.8312 35.7588 52.8189 36.9815 52.8127 38.1971C51.5903 38.21 50.3745 38.2157 49.1591 38.2219C49.1591 39.438 49.1591 40.6482 49.1591 41.8644C50.3745 41.8704 51.5969 41.8771 52.8127 41.889C52.8246 43.1052 52.8246 44.3216 52.8374 45.5434C54.047 45.5434 55.2628 45.5377 56.479 45.5434C56.4848 44.3216 56.4909 43.1052 56.5033 41.8828C57.7191 41.8771 58.9415 41.8704 60.1573 41.8644C60.1573 40.6482 60.1573 39.438 60.1573 38.2219C58.9415 38.2157 57.7191 38.21 56.5033 38.1971C56.4971 36.9815 56.4848 35.7588 56.479 34.5429C55.2628 34.5429 54.0532 34.5429 52.8431 34.5429ZM19.8841 40.0431C19.7743 45.3848 23.4528 50.4819 28.512 52.1443C33.2781 53.7455 39.1378 52.5477 42.3091 48.4653C44.625 45.6048 45.1503 41.7911 44.8996 38.2281C40.8181 38.1914 36.7365 38.2033 32.6608 38.21C32.6548 39.6646 32.6608 41.1129 32.6671 42.5675C35.1111 42.6343 37.5554 42.6043 39.9994 42.6527C39.3823 44.7676 37.9769 46.7355 35.8443 47.4994C31.726 49.3144 26.4712 46.9431 25.1757 42.6224C23.6116 38.4847 26.1717 33.4916 30.4001 32.2878C33.0214 31.3647 35.7222 32.4036 37.9646 33.7663C39.1013 32.703 40.1643 31.5665 41.2093 30.4172C38.6612 28.2846 35.3861 26.9766 32.0193 27.2642C25.4139 27.3433 19.6337 33.4429 19.8841 40.0431Z" fill="white"/>
</svg>

<svg xmlns="http://www.w3.org/2000/svg" width="80" height="80" fill="none" viewBox="0 0 80 80"><path fill="#e4363a" d="M72 40c0 17.673-14.327 32-32 32S8 57.673 8 40 22.327 8 40 8s32 14.327 32 32"/><path fill="#fff" d="M52.843 34.543a742 742 0 0 0-.03 3.654q-1.833.018-3.654.025v3.642c1.215.006 2.438.013 3.654.025.012 1.216.012 2.433.024 3.654 1.21 0 2.426-.005 3.642 0 .006-1.221.012-2.438.024-3.66l3.654-.019v-3.642c-1.215-.006-2.438-.012-3.654-.025-.006-1.216-.018-2.438-.024-3.654zm-32.959 5.5c-.11 5.342 3.569 10.439 8.628 12.101 4.766 1.602 10.626.404 13.797-3.679 2.316-2.86 2.841-6.674 2.59-10.237-4.08-.037-8.163-.025-12.238-.018-.006 1.455 0 2.903.006 4.358 2.444.066 4.888.036 7.332.085-.617 2.115-2.022 4.083-4.155 4.846-4.118 1.815-9.373-.556-10.668-4.877-1.564-4.137.996-9.13 5.224-10.334 2.621-.923 5.322.116 7.565 1.478 1.136-1.063 2.2-2.2 3.244-3.349-2.548-2.132-5.823-3.44-9.19-3.153-6.605.08-12.385 6.179-12.135 12.78"/></svg>
